X: 63
M:2/4
L:1/16
K:Bb
(uFGA)|BdFB DFBd|fbdf BdFB|ceAc FACF|AFAc ecAF|
|:vcB|Afcf Afcf|AFAc fcAF|dfBf dfBf|dBdf bfdB|
=egcg egcg|eceg bgec|fefa gfeg|f2f2f2:|


